X:7898
T:Portsmouth
T:Old English air
C:anon.
O:England
Z:Transcribed by Frank Nordberg - http://www.musicaviva.com
F:http://abc.musicaviva.com/tunes/england/portsmouth/portsmouth.abc
M:C
L:1/8
K:G
D2|G3A BAGF|E4e2e2|d2B2 cB AG|A6D2|
G3A BAGF|E4e2e2|d2B2 cB AB|G6d2|
g3a bagf|g2d4B2|g2B2 cB AG|A4 z2 D2|
G3A BAGF|E4e4|d2B2 cB AB|G6z2|]
W:
W:
W:  From Musica Viva - http://www.musicaviva.com
W:  the Internet center for free sheet music downloads.
